X:1
T:Title
%%score { 1 | ( 2 3 ) }
L:1/8
M:4/4
K:C
V:1 treble nm="Grand Piano"
V:2 bass 
V:3 bass 
V:1
 z4 z2[Q:1/4=100] [CE]>[DF] | [EG]2 [EG]2 [EG]2 [EA]>[EB] | [Ec]2 [Ec]2 [Ec]2 [EB]>[EA] | %3
 B2 F2 A2 G2 | [CEG]6 [G,CE]>[G,DF] | [EG]2 [EG]2 [EG]2 [EA]>[EB] | [Ec]2 [Ec]2 [Ec]2 [EB]>[EA] | %7
 [EB]2 [EB]2 [_EB]2 [^FB]2 | [EB]6 [Gc]>[G^c] | [Gd]2 [GB]2 [^FB]2 [DA]2 |[M:3/4] [DG]6 | %11
[M:1/4] [EG]2 |[M:4/4] F2 c2 B>A D>E | [G,B,F]6 [G,B,F]2 | [G,CE]2 [Ec]2 [EB]2 [G,E]2 | %15
 [CEG]6 [G,CE]>[G,DF] | [CEG]2 [CGc]2 [DFB]2 [CFA]>[B,FG] |[M:5/4] [CGc]2 [G^c]2 [Fd]3 [A_e]3 | %18
[M:4/4] .e2 c2 d>G A>G |[M:3/4] [Ec]6 |] %20
V:2
 z4 z2 [C,G,]>[C,G,] | [C,C]2 [C,C]2 [C,C]2 [C,G,]>[C,G,] | [C,G,]2 [C,G,]2 [C,G,]2 [C,G,]>[C,C] | %3
 [G,DF]2 [F,B,D]2 [G,B,F]2 [G,B,F]2 | C,6 z2 | [C,C]2 [C,C]2 [C,C]2 [C,G,]>[C,G,] | %6
 [C,G,]2 [C,G,]2 [C,G,]2 [C,G,]>[C,G,] | [B,,G,]2 [B,,G,]2 [B,,^F,]2 [B,,A,]2 | %8
 [E,G,]6 [E,A,]>[_E,A,] | [D,B,]2 [D,D]2 [D,D]2 [D,C]2 |[M:3/4] [G,B,]6 |[M:1/4] [C,C]2 | %12
[M:4/4] [G,B,D]2 [G,B,D]2 [G,D]2 [F,B,]>[E,C] | D,>C, B,,>A,, G,,>F, E,>D, | %14
 C,2 [C,G,]2 z z/ A/ z z/ A/ | C,>G,, A,,>B,, C,2 C,>C, | C,2 E,2 G,2 G,>G, | %17
[M:5/4] E,2 [E,A,]2 [F,A,]3 [^F,C]3 | %18
[M:4/4][K:treble] .[G,CG]2 [G,CE]2 [G,B,F]>[G,B,F] [G,CF]>[G,B,F] |[M:3/4][K:bass] [C,G,]6 |] %20
V:3
 x8 | x8 | x8 | x8 | z2 G,,<A,, B,,<C, C,>C, | x8 | x8 | x8 | x8 | x8 |[M:3/4] x6 |[M:1/4] x2 | %12
[M:4/4] z4 z2 G,2 | x8 | z4 [C,G,]2 C,2 | x8 | x8 |[M:5/4] x10 |[M:4/4][K:treble] x8 | %19
[M:3/4][K:bass] x6 |] %20

